dist/img/sprites/filter-alt.svg

<svg width="21" height="21" viewBox="0 0 21 21" fill="none" xmlns="http://www.w3.org/2000/svg">
<path d="M3.26172 16.0316H14.9284H3.26172ZM14.9284 16.0316C14.9284 16.3612 15.0261 16.6834 15.2093 16.9575C15.3924 17.2316 15.6527 17.4452 15.9572 17.5714C16.2618 17.6975 16.5969 17.7305 16.9202 17.6662C17.2435 17.6019 17.5405 17.4432 17.7736 17.2101C18.0067 16.977 18.1654 16.68 18.2297 16.3567C18.294 16.0334 18.261 15.6983 18.1349 15.3938C18.0087 15.0892 17.7951 14.8289 17.521 14.6458C17.2469 14.4627 16.9247 14.3649 16.5951 14.3649C16.153 14.3649 15.7291 14.5405 15.4165 14.8531C15.104 15.1656 14.9284 15.5895 14.9284 16.0316ZM6.59505 10.1982H18.2617H6.59505ZM3.26172 10.1982C3.26172 10.5279 3.35947 10.8501 3.5426 11.1242C3.72574 11.3983 3.98604 11.6119 4.29058 11.738C4.59512 11.8642 4.93023 11.8972 5.25354 11.8329C5.57684 11.7686 5.87381 11.6098 6.1069 11.3768C6.33998 11.1437 6.49872 10.8467 6.56303 10.5234C6.62734 10.2001 6.59433 9.86498 6.46818 9.56044C6.34204 9.25589 6.12842 8.99559 5.85434 8.81246C5.58025 8.62932 5.25802 8.53157 4.92839 8.53157C4.48636 8.53157 4.06243 8.70717 3.74987 9.01973C3.43731 9.33229 3.26172 9.75621 3.26172 10.1982ZM12.4284 4.36491L18.2617 4.36491L12.4284 4.36491ZM9.09505 4.36491H3.26172H9.09505ZM9.09505 4.36491C9.09505 4.69454 9.1928 5.01678 9.37594 5.29086C9.55907 5.56494 9.81937 5.77856 10.1239 5.90471C10.4285 6.03085 10.7636 6.06386 11.0869 5.99955C11.4102 5.93524 11.7071 5.77651 11.9402 5.54342C12.1733 5.31033 12.3321 5.01336 12.3964 4.69006C12.4607 4.36676 12.4277 4.03165 12.3015 3.7271C12.1754 3.42256 11.9618 3.16226 11.6877 2.97913C11.4136 2.79599 11.0914 2.69824 10.7617 2.69824C10.3197 2.69824 9.89577 2.87384 9.58321 3.1864C9.27065 3.49896 9.09505 3.92288 9.09505 4.36491Z" stroke="#0F582D" stroke-width="1.66667" stroke-linecap="round" stroke-linejoin="round"/>
</svg>

<svg width="21" height="21" viewBox="0 0 21 21" fill="none" xmlns="http://www.w3.org/2000/svg"><path d="M3.262 16.032h11.666H3.262zm11.666 0a1.666 1.666 0 103.333 0 1.666 1.666 0 00-3.333 0zm-8.333-5.834h11.667H6.595zm-3.333 0a1.667 1.667 0 103.333 0 1.667 1.667 0 00-3.333 0zm9.166-5.833h5.834-5.834zm-3.333 0H3.262h5.833zm0 0a1.667 1.667 0 103.333 0 1.667 1.667 0 00-3.333 0z" stroke="#0F582D" stroke-width="1.667" stroke-linecap="round" stroke-linejoin="round"/></svg>
